X:1
T: Audenard Battle
N:
C:aka "London Spy"
S:
A:
O:
R:
M:6/8
K:Am
I:speed 150
%W: A1
% voice 1 (1 lines, 38 notes)
K:Am
M:6/8
L:1/16
a2 |a4 e2 e4 a2 g2 e2 c2 c4 f2 f2 d2 B2 B4 e2 e2 c2 A2 A4 a2 |a4 e2 e4 a2 g2 e2 c2 c4 f2 f2 d2 B2 c2 e2 ^G2 A6A4 a2 |
%W: A2
% voice 1 (1 lines, 37 notes)
a4 e2 e4 a2 g2 e2 c2 c4 f2 f2 d2 B2 B4 e2 e2 c2 A2 A4 a2 |a4 e2 e4 a2 g2 e2 c2 c4 f2 f2 d2 B2 c2 e2 ^G2 A6A4 B2 |
%W: B1
% voice 1 (1 lines, 32 notes)
c3 d c2 e4 c2 e f g2 c2 B4 e2 A B c2 A2 B4 E2 A B c2 d2 e4 a2 |g2 e2 c2 B2 A2 ^G2 A6A4 B2
%W: B2
% voice 1 (1 lines, 31 notes)
c3 d c2 e4 c2 e f g2 c2 B4 e2 |A B c2 A2 B4 E2 A B c2 d2 e4 a2 g2 e2 c2 B2 A2 ^G2 A6A4 ||
